brandFactory_export/3.Masa/(1)AI_Inteligencia Artificial_3Masa.svg

<?xml version="1.0" encoding="UTF-8"?>
<svg width="24px" height="24px" viewBox="0 0 24 24" version="1.1" xmlns="http://www.w3.org/2000/svg" xmlns:xlink="http://www.w3.org/1999/xlink">
    <title>3.Masa/(1)AI_Inteligencia Artificial_3Masa</title>
    <g id="Symbols" stroke="none" stroke-width="1" fill="none" fill-rule="evenodd">
        <g id="3.Masa/(1)AI_Inteligencia-Artificial_3Masa" fill="#5CB615" fill-rule="nonzero">
            <path d="M15.1714286,0.0201680672 C16.3344538,0.0201680672 17.1781513,0.423529412 17.6756303,1.21680672 C17.7159664,1.28067227 17.7260504,1.35462185 17.702521,1.42521008 C17.6789916,1.49579832 17.6285714,1.55294118 17.5579832,1.57983193 C16.7378151,1.91932773 16.0857143,2.58823529 15.7663866,3.41848739 L15.6789916,3.66386555 C15.6352941,3.79495798 15.6487395,3.93277311 15.712605,4.05378151 C15.7865546,4.19495798 15.9243697,4.30252101 16.0890756,4.34957983 C16.1495798,4.36638655 16.2134454,4.37647059 16.2773109,4.37647059 C16.5495798,4.37647059 16.7983193,4.21176471 16.8756303,3.97983193 L16.8756303,3.97647059 L16.9462185,3.77815126 C16.9462185,3.77478992 16.9462185,3.77478992 16.9495798,3.77142857 C17.0739496,3.45210084 17.5680672,2.41344538 18.7546218,2.44705882 L18.7714286,2.44705882 C19.7966387,2.45042017 20.6806723,2.66890756 21.4,3.09915966 C22.0117647,3.46554622 22.5058824,3.98319328 22.8722689,4.63865546 C23.507563,5.77815126 23.6016807,7.0487395 23.6016807,7.70756303 C23.6016807,8.09747899 23.5512605,9.47226891 22.8991597,10.7159664 C22.8655462,10.7764706 22.8084034,10.8235294 22.7411765,10.8403361 C22.6739496,10.8571429 22.6033613,10.8470588 22.5428571,10.810084 C21.8504202,10.3798319 21.0504202,10.1142857 20.1630252,10.0235294 L20.1596639,10.0235294 C19.8235294,9.98319328 19.507563,10.2084034 19.4739496,10.5142857 C19.4571429,10.6487395 19.497479,10.7831933 19.5848739,10.8941176 C19.6890756,11.0218487 19.8470588,11.1058824 20.0218487,11.1226891 C21.0134454,11.2235294 21.810084,11.5663866 22.3983193,12.1478992 L22.4184874,12.1680672 C23.5176471,13.5193277 23.6016807,15.3815126 23.6016807,15.9193277 C23.6016807,16.5680672 23.507563,17.8218487 22.8689076,18.9546218 C22.502521,19.6067227 22.0084034,20.1210084 21.4,20.4907563 C20.6773109,20.9277311 19.7865546,21.1563025 18.7546218,21.1731092 L18.7243697,21.1731092 C18.3882353,21.1731092 18.0151261,21.0554622 17.6420168,20.8302521 C17.5613445,20.7831933 17.4840336,20.7294118 17.410084,20.6756303 C17.1310924,20.4739496 16.7445378,20.5142857 16.512605,20.7663866 C16.4218487,20.8705882 16.3781513,21.0016807 16.3882353,21.1361345 C16.3983193,21.2739496 16.4588235,21.3983193 16.5630252,21.4890756 C16.5764706,21.502521 16.5932773,21.512605 16.610084,21.5260504 C16.6134454,21.5260504 16.6134454,21.5294118 16.6168067,21.5294118 C16.707563,21.5966387 16.8117647,21.6672269 16.9394958,21.7478992 C17.1210084,21.8554622 17.3159664,21.9495798 17.5546218,22.0470588 C17.6218487,22.0739496 17.6756303,22.1310924 17.6991597,22.2016807 C17.7226891,22.2722689 17.712605,22.3495798 17.6722689,22.4134454 C17.1815126,23.2033613 16.3378151,23.6067227 15.1714286,23.6067227 C13.6756303,23.6067227 13.0907563,22.2184874 12.9462185,21.7915966 C12.9361345,21.7647059 12.9327731,21.7378151 12.9327731,21.707563 C12.9361345,21.3277311 12.9394958,20.6352941 12.9327731,20.4672269 L12.9327731,18.9042017 C12.9327731,18.7663866 13.0436975,18.6521008 13.1848739,18.6521008 L14.9361345,18.6521008 C15.0201681,18.6521008 15.097479,18.692437 15.1445378,18.7630252 C15.4067227,19.1495798 15.8537815,19.3815126 16.3478992,19.3815126 C17.1310924,19.3815126 17.7663866,18.8033613 17.7663866,18.0941176 C17.7663866,17.3848739 17.1310924,16.810084 16.3478992,16.810084 C15.8571429,16.810084 15.4067227,17.0420168 15.1445378,17.4285714 C15.097479,17.4991597 15.0201681,17.5394958 14.9361345,17.5394958 L13.1848739,17.5394958 C13.0470588,17.5394958 12.9327731,17.4285714 12.9327731,17.287395 L12.9327731,9.04201681 C12.9327731,8.90420168 13.0436975,8.78991597 13.1848739,8.78991597 L14.4252101,8.78991597 C14.5630252,8.78991597 14.6773109,8.90084034 14.6773109,9.04201681 L14.6773109,11.6537815 C14.6773109,11.7378151 14.6369748,11.8151261 14.5663866,11.8621849 C14.1966387,12.1109244 13.9815126,12.487395 13.9815126,12.8941176 C13.9815126,13.6033613 14.6168067,14.1815126 15.4,14.1815126 C15.8907563,14.1815126 16.3411765,13.9529412 16.6033613,13.5663866 C16.6504202,13.4991597 16.7277311,13.4554622 16.8117647,13.4554622 L19.994958,13.4487395 C20.0621849,13.4487395 20.1260504,13.4756303 20.1731092,13.5226891 C20.2201681,13.5697479 20.2470588,13.6336134 20.2470588,13.7008403 L20.2470588,15.3714286 C20.2470588,15.4621849 20.2,15.5462185 20.1193277,15.589916 C19.6991597,15.8285714 19.4504202,16.2352941 19.4504202,16.6756303 C19.4504202,17.3848739 20.0857143,17.9630252 20.8689076,17.9630252 C21.6487395,17.9630252 22.2840336,17.3848739 22.2840336,16.6756303 C22.2840336,16.2386555 22.0352941,15.8319328 21.6218487,15.5932773 C21.5445378,15.5495798 21.497479,15.4655462 21.497479,15.3747899 L21.497479,12.8941176 C21.497479,12.7495798 21.4336134,12.6084034 21.3226891,12.5109244 C21.2016807,12.4 21.0436975,12.3394958 20.8789916,12.3394958 L20.8756303,12.3394958 L16.8218487,12.3462185 C16.7378151,12.3462185 16.6605042,12.3058824 16.6134454,12.2352941 C16.4756303,12.0336134 16.2907563,11.8722689 16.0722689,11.7714286 C15.9848739,11.7310924 15.9277311,11.6403361 15.9277311,11.5462185 L15.9277311,9.04201681 C15.9277311,8.90420168 16.0386555,8.78991597 16.1798319,8.78991597 L19.2789916,8.78991597 C19.6218487,8.78991597 19.9042017,8.54117647 19.9042017,8.23529412 L19.9042017,6.26554622 C19.9042017,6.17478992 19.9512605,6.0907563 20.0319328,6.04705882 C20.4521008,5.80840336 20.7008403,5.40504202 20.7008403,4.96470588 C20.7008403,4.25546218 20.0655462,3.68067227 19.2823529,3.68067227 C18.502521,3.68067227 17.8672269,4.25546218 17.8672269,4.96470588 C17.8672269,5.40504202 18.1159664,5.80840336 18.5294118,6.04705882 C18.6067227,6.0907563 18.6571429,6.17478992 18.6571429,6.26554622 L18.6571429,7.42857143 C18.6571429,7.56638655 18.5462185,7.68067227 18.405042,7.68067227 L13.1848739,7.68067227 C13.0470588,7.68067227 12.9327731,7.5697479 12.9327731,7.42857143 L12.9327731,3.1697479 C12.9327731,2.92773109 12.9394958,2.04369748 12.9428571,1.72436975 C12.9428571,1.6907563 12.9495798,1.65378151 12.9663866,1.62352941 C13.1378151,1.24705882 13.8,0.0201680672 15.1714286,0.0201680672 Z M9.44369748,0.0134453782 C10.9394958,0.0134453782 11.5243697,1.40168067 11.6689076,1.82857143 C11.6789916,1.85546218 11.6823529,1.88571429 11.6823529,1.91260504 C11.6756303,2.32605042 11.6756303,2.74621849 11.6823529,3.15966387 L11.6823529,4.18823529 C11.6823529,4.32605042 11.5714286,4.44033613 11.4302521,4.44033613 L9.84369748,4.44033613 C9.76302521,4.44033613 9.68571429,4.4 9.63865546,4.33277311 C9.36302521,3.93613445 8.91260504,3.70420168 8.43193277,3.71092437 C7.6487395,3.71092437 7.01008403,4.28571429 7.01008403,4.99495798 C7.01008403,5.70420168 7.64537815,6.2789916 8.42857143,6.2789916 C8.92268908,6.2789916 9.37310924,6.04705882 9.63529412,5.6605042 C9.68235294,5.58991597 9.75966387,5.54957983 9.84369748,5.54957983 L11.4302521,5.54957983 C11.5680672,5.54957983 11.6823529,5.6605042 11.6823529,5.80168067 L11.6823529,7.41848739 C11.6823529,7.55630252 11.5714286,7.67058824 11.4302521,7.67058824 L5.41344538,7.67058824 C5.33277311,7.67058824 5.25546218,7.6302521 5.20840336,7.56302521 C4.93613445,7.17310924 4.49243697,6.94117647 4.01848739,6.94117647 L4.00504202,6.94117647 C3.22184874,6.94117647 2.58319328,7.51596639 2.58319328,8.22521008 C2.58319328,8.93445378 3.21848739,9.5092437 4.00168067,9.5092437 C4.49579832,9.5092437 4.94621849,9.27731092 5.20840336,8.8907563 C5.25546218,8.82016807 5.33277311,8.77983193 5.41680672,8.77983193 L11.4369748,8.77983193 C11.5747899,8.77983193 11.6890756,8.8907563 11.6890756,9.03193277 L11.6890756,10.3932773 C11.6890756,10.5310924 11.5781513,10.6453782 11.4369748,10.6453782 L8.46890756,10.6453782 C8.12605042,10.6453782 7.84369748,10.8941176 7.84369748,11.2 L7.84369748,13.6806723 C7.84369748,13.7714286 7.79663866,13.8554622 7.71596639,13.8991597 C7.29915966,14.1378151 7.05042017,14.5445378 7.05042017,14.9848739 C7.05042017,15.6941176 7.68571429,16.2689076 8.46890756,16.2689076 C9.25210084,16.2689076 9.88739496,15.6941176 9.88739496,14.9848739 C9.88739496,14.5445378 9.63865546,14.1378151 9.22184874,13.8991597 C9.14453781,13.8554622 9.09411765,13.7714286 9.09411765,13.6806723 L9.09411765,12.0067227 C9.09411765,11.8689076 9.20504202,11.7546218 9.34621849,11.7546218 L11.4403361,11.7546218 C11.5781513,11.7546218 11.692437,11.8655462 11.692437,12.0067227 L11.692437,18.4537815 C11.692437,18.5915966 11.5815126,18.7058824 11.4403361,18.7058824 L5.02016807,18.7058824 C4.88235294,18.7058824 4.77142857,18.594958 4.76806723,18.4571429 L4.76470588,18.2823529 C4.74789916,18.1781513 4.79831933,18.0739496 4.89243697,18.0235294 C5.31932773,17.7882353 5.57478992,17.3781513 5.57478992,16.9310924 C5.57478992,16.2218487 4.9394958,15.6436975 4.15630252,15.6436975 C3.37310924,15.6436975 2.73781513,16.2218487 2.73781513,16.9310924 C2.73781513,17.3714286 2.98655462,17.7747899 3.4,18.0134454 C3.48403361,18.0605042 3.53109244,18.1512605 3.52436975,18.2453782 C3.52436975,18.2689076 3.51764706,18.2890756 3.51428571,18.3058824 L3.52773109,19.2672269 C3.53109244,19.5697479 3.81344538,19.8151261 4.15294118,19.8151261 L11.4268908,19.8151261 C11.5647059,19.8151261 11.6789916,19.9260504 11.6789916,20.0672269 L11.6789916,20.4571429 C11.6789916,20.6588235 11.6722689,21.287395 11.6689076,21.7042017 L11.6655462,21.8991597 C11.6655462,21.9327731 11.6588235,21.9697479 11.6420168,22 C11.4806723,22.3764706 10.8151261,23.6067227 9.44369748,23.6067227 C8.29411765,23.6067227 7.4605042,23.2201681 6.96302521,22.4605042 C6.91932773,22.3966387 6.9092437,22.3159664 6.93613445,22.2420168 C6.95966387,22.1680672 7.01680672,22.1109244 7.0907563,22.0840336 C7.35630252,21.989916 7.59495798,21.8789916 7.81680672,21.7445378 C7.95798319,21.6605042 8.0487395,21.5327731 8.08235294,21.3815126 C8.1092437,21.2436975 8.0789916,21.1058824 7.99495798,20.9882353 C7.80672269,20.7226891 7.41008403,20.6487395 7.11764706,20.8235294 C6.7210084,21.0621849 6.36806723,21.1731092 6.01176471,21.1697479 L5.98487395,21.1697479 C5.96134454,21.1731092 5.93109244,21.1798319 5.89411765,21.1798319 L5.87058823,21.1798319 L5.85378151,21.1764706 C4.82521008,21.1731092 3.94117647,20.9546218 3.21848739,20.5243697 C2.60672269,20.1579832 2.11260504,19.6403361 1.74621849,18.9848739 C1.11092437,17.8453782 1.01680672,16.5747899 1.01680672,15.9159664 C1.01680672,15.5394958 1.06386555,14.2084034 1.6789916,12.9781513 C1.72941176,12.8773109 1.84033613,12.8235294 1.9512605,12.8436975 C2.06218487,12.8672269 2.14621849,12.9613445 2.15294118,13.0722689 C2.19663866,13.7344538 2.67058823,14.292437 3.41680672,14.5613445 L3.56806723,14.6117647 C3.62857143,14.6319328 3.69243697,14.6420168 3.75630252,14.6420168 C3.99831933,14.6386555 4.21680672,14.487395 4.30420168,14.2588235 L4.30420168,14.2554622 C4.36134454,14.1142857 4.32436975,13.9831933 4.28739496,13.8957983 C4.21344538,13.7344538 4.06890756,13.6 3.89411765,13.5361345 C3.74285714,13.4890756 3.60504202,13.394958 3.50756302,13.2672269 C3.45042017,13.1932773 3.44033613,13.092437 3.48067227,13.0084034 C3.5210084,12.9243697 3.60504202,12.8705882 3.69579832,12.8638655 C4.25378151,12.8403361 4.72773109,12.7226891 5.10420168,12.5109244 C5.2487395,12.4302521 5.34621849,12.3058824 5.37983193,12.1579832 C5.41344538,12.0235294 5.38655462,11.8823529 5.30588235,11.7613445 C5.12436975,11.4890756 4.73445378,11.405042 4.43529412,11.5731092 C4.14621849,11.7378151 3.76302521,11.8016807 3.26890756,11.7647059 C2.81848739,11.7310924 2.45210084,11.6134454 2.18655462,11.4151261 C2.16638655,11.4016807 2.15294118,11.3848739 2.13613445,11.3680672 C1.09411765,10.0168067 1.01344538,8.22184874 1.01344538,7.70084034 C1.01344538,7.04201681 1.11092437,5.77142857 1.75966387,4.63193277 C2.13277311,3.97647059 2.64033613,3.45882353 3.26554622,3.09243697 C4.00504202,2.65882353 4.91596639,2.44033613 5.97478992,2.44033613 L5.98487395,2.44033613 C6.36470588,2.45378151 6.64033613,2.51764706 6.8789916,2.64537815 C6.97647059,2.69915966 7.0907563,2.72941176 7.20504202,2.72941176 C7.42689076,2.72941176 7.63529412,2.62184874 7.74957983,2.45042017 C7.82689076,2.32941176 7.85042017,2.18823529 7.81680672,2.05378151 C7.77983193,1.90588235 7.6789916,1.78151261 7.53445378,1.70420168 C7.39663866,1.6302521 7.25210084,1.56638655 7.10420168,1.51260504 C7.0302521,1.48571429 6.97647059,1.42857143 6.94957983,1.35462185 C6.92605042,1.28067227 6.93613445,1.2 6.97983193,1.13613445 C7.48067227,0.393277311 8.30756302,0.0134453782 9.44369748,0.0134453782 Z" id="(1)AI_Inteligencia-Artificial_3Masa"></path>
        </g>
    </g>
</svg>

<svg width="24" height="24" viewBox="0 0 24 24" xmlns="http://www.w3.org/2000/svg"><path d="M15.171.02c1.163 0 2.007.404 2.505 1.197.04.064.05.138.027.208a.245.245 0 01-.145.155 3.264 3.264 0 00-1.792 1.838l-.087.246a.493.493 0 00.034.39.612.612 0 00.376.296c.06.016.124.026.188.026.273 0 .521-.164.599-.396v-.004l.07-.198c0-.003 0-.003.004-.007.124-.319.618-1.358 1.805-1.324h.016c1.026.003 1.91.222 2.629.652a4.08 4.08 0 011.472 1.54c.636 1.14.73 2.41.73 3.069 0 .39-.05 1.764-.703 3.008a.255.255 0 01-.158.124.258.258 0 01-.198-.03c-.693-.43-1.493-.696-2.38-.786h-.003c-.336-.04-.652.184-.686.49a.51.51 0 00.11.38.643.643 0 00.438.229c.991.1 1.788.443 2.376 1.025l.02.02c1.1 1.351 1.184 3.214 1.184 3.751 0 .65-.094 1.903-.733 3.036A4.138 4.138 0 0121.4 20.49c-.723.437-1.613.665-2.645.682h-.03c-.337 0-.71-.118-1.083-.343a2.78 2.78 0 01-.232-.154.68.68 0 00-.897.09.511.511 0 00.05.723c.013.014.03.024.047.037.003 0 .003.003.007.003.09.068.195.138.322.219.182.107.377.202.616.3a.249.249 0 01.118.366c-.491.79-1.335 1.193-2.502 1.193-1.495 0-2.08-1.389-2.225-1.815a.232.232 0 01-.013-.084c.003-.38.006-1.073 0-1.24v-1.564c0-.138.11-.252.252-.252h1.751c.084 0 .161.04.209.111.262.387.709.619 1.203.619.783 0 1.418-.579 1.418-1.288 0-.71-.635-1.284-1.418-1.284-.49 0-.941.232-1.203.619a.248.248 0 01-.209.11h-1.751a.252.252 0 01-.252-.252V9.042c0-.138.11-.252.252-.252h1.24c.138 0 .252.11.252.252v2.612c0 .084-.04.161-.11.208-.37.249-.585.625-.585 1.032 0 .71.635 1.288 1.418 1.288.49 0 .941-.23 1.203-.616a.257.257 0 01.209-.11l3.183-.007a.252.252 0 01.252.252v1.67c0 .091-.047.175-.128.219-.42.239-.669.645-.669 1.086 0 .709.636 1.287 1.419 1.287.78 0 1.415-.578 1.415-1.287 0-.437-.249-.844-.662-1.083a.25.25 0 01-.125-.218v-2.48a.513.513 0 00-.174-.384.655.655 0 00-.444-.172h-.003l-4.054.007a.248.248 0 01-.209-.11 1.336 1.336 0 00-.54-.465.252.252 0 01-.145-.225V9.042c0-.138.11-.252.252-.252h3.099c.343 0 .625-.249.625-.555v-1.97c0-.09.047-.174.128-.218.42-.239.669-.642.669-1.082 0-.71-.635-1.284-1.419-1.284-.78 0-1.415.574-1.415 1.284 0 .44.249.843.662 1.082a.253.253 0 01.128.219v1.163c0 .137-.11.252-.252.252h-5.22a.252.252 0 01-.252-.252v-4.26c0-.241.006-1.125.01-1.445 0-.033.007-.07.023-.1.172-.377.834-1.604 2.205-1.604zM9.444.013c1.495 0 2.08 1.389 2.225 1.816.01.026.013.057.013.084-.006.413-.006.833 0 1.247v1.028c0 .138-.11.252-.252.252H9.844a.252.252 0 01-.205-.107 1.442 1.442 0 00-1.207-.622c-.783 0-1.422.575-1.422 1.284 0 .71.635 1.284 1.419 1.284.494 0 .944-.232 1.206-.618a.248.248 0 01.209-.111h1.586c.138 0 .252.11.252.252v1.616c0 .138-.11.253-.252.253H5.413a.252.252 0 01-.205-.108 1.451 1.451 0 00-1.19-.622h-.013c-.783 0-1.422.575-1.422 1.284 0 .71.635 1.284 1.419 1.284.494 0 .944-.232 1.206-.618a.248.248 0 01.209-.111h6.02c.138 0 .252.11.252.252v1.361c0 .138-.11.252-.252.252H8.469c-.343 0-.625.25-.625.555v2.48c0 .091-.047.175-.128.22-.417.238-.666.645-.666 1.085 0 .71.636 1.284 1.419 1.284s1.418-.575 1.418-1.284c0-.44-.248-.847-.665-1.086a.253.253 0 01-.128-.218v-1.674c0-.138.111-.252.252-.252h2.094c.138 0 .252.11.252.252v6.447c0 .138-.11.252-.252.252H5.02a.253.253 0 01-.252-.249l-.003-.175a.248.248 0 01.127-.258c.427-.236.683-.646.683-1.093 0-.71-.636-1.287-1.419-1.287s-1.418.578-1.418 1.287c0 .44.249.844.662 1.082a.245.245 0 01.124.232c0 .024-.006.044-.01.06l.014.962c.003.303.285.548.625.548h7.274c.138 0 .252.111.252.252v.39c0 .202-.007.83-.01 1.247l-.003.195c0 .034-.007.07-.024.101-.161.376-.827 1.607-2.198 1.607-1.15 0-1.983-.387-2.481-1.146a.24.24 0 01-.027-.219.25.25 0 01.155-.158c.265-.094.504-.205.726-.34a.557.557 0 00.265-.362.501.501 0 00-.087-.394c-.188-.265-.585-.34-.877-.164-.397.238-.75.35-1.106.346h-.027c-.024.003-.054.01-.09.01H5.87l-.017-.004c-1.029-.003-1.913-.221-2.636-.652a4.08 4.08 0 01-1.472-1.54c-.635-1.139-.73-2.41-.73-3.068 0-.377.048-1.708.663-2.938.05-.1.161-.154.272-.134.111.023.195.117.202.228.044.662.518 1.22 1.264 1.49l.151.05c.06.02.124.03.188.03a.597.597 0 00.548-.383v-.004a.461.461 0 00-.017-.36.702.702 0 00-.393-.359.78.78 0 01-.386-.269.249.249 0 01-.027-.259.26.26 0 01.215-.144c.558-.024 1.032-.141 1.408-.353a.543.543 0 00.276-.353.494.494 0 00-.074-.397c-.182-.272-.572-.356-.87-.188-.29.165-.673.229-1.167.192-.45-.034-.817-.152-1.082-.35-.02-.013-.034-.03-.05-.047-1.043-1.351-1.124-3.146-1.124-3.667 0-.659.098-1.93.747-3.07a4.114 4.114 0 011.506-1.539c.739-.433 1.65-.652 2.709-.652h.01c.38.014.655.078.894.205a.682.682 0 00.326.084c.222 0 .43-.107.545-.279a.504.504 0 00.067-.396.55.55 0 00-.283-.35 3.287 3.287 0 00-.43-.191.251.251 0 01-.124-.376C7.48.392 8.308.012 9.444.012z" fill="#5CB615" fill-rule="nonzero"/></svg>
